packages/wallets/icons/slope.svg

<svg fill="none" height="128" viewBox="0 0 128 128" width="128" xmlns="http://www.w3.org/2000/svg"><circle cx="64" cy="64" fill="#6e66fa" r="64"/><g fill="#fff"><path d="m35.1963 54.3998h19.2v19.2h-19.2z"/><path d="m73.597 54.3998-19.2 19.2v-19.2l19.2-19.2z" fill-opacity=".4"/><path d="m73.597 73.5998-19.2 19.2v-19.2l19.2-19.2z" fill-opacity=".75"/><path d="m73.604 54.3998h19.2v19.2h-19.2z"/><path d="m54.3968 35.2 19.2-19.2v19.2l-19.2 19.2h-19.2z" fill-opacity=".75"/><path d="m73.5915 92.8-19.2 19.2v-19.2l19.2-19.2h19.2z" fill-opacity=".4"/></g></svg>

<svg width="128" height="128" viewBox="0 0 128 128" fill="none" xmlns="http://www.w3.org/2000/svg">
    <circle cx="64" cy="64" r="64" fill="#6E66FA"/>
    <rect x="35.1963" y="54.3998" width="19.2" height="19.2" fill="white"/>
    <path d="M73.597 54.3998L54.397 73.5998V54.3998L73.597 35.1998V54.3998Z" fill="white" fill-opacity="0.4"/>
    <path d="M73.597 73.5998L54.397 92.7998V73.5998L73.597 54.3998V73.5998Z" fill="white" fill-opacity="0.75"/>
    <rect x="73.604" y="54.3998" width="19.2" height="19.2" fill="white"/>
    <path d="M54.3968 35.2L73.5968 16V35.2L54.3968 54.4H35.1968L54.3968 35.2Z" fill="white" fill-opacity="0.75"/>
    <path d="M73.5915 92.8L54.3915 112L54.3915 92.8L73.5915 73.6L92.7915 73.6L73.5915 92.8Z" fill="white"
          fill-opacity="0.4"/>
</svg>
